X: 39
M:4/4
L:1/8
K:G
d2|GBAG E2 GE|D2 DD E2 G2|ABAG "tr"B2 BG|ABAG "tr"E2 D2|
dcBd cBAc|BAGB AFDF|gfgd (3efg dc|BGAF G2||

